!!!!SEGMENT: pl-wn--sd-xvi-o-245_anonim--kancjonal-zamoyskich-oratio-dominica-to-jest-modlitwa-panska.krn
!!!cenid: 15xx:803
!!!COM: Anonim
!!!COM-rismID: pe30004985
!!!CDT:
!!!CNT:
!!!GTL: Kancjonał Zamoyskich
!!!OTL: Oratio Dominica to jest modlitwa pańska
!!!PDT: 1558
!!!AGN:
!!!SMS-siglum: PL-Wn
!!!SMS-shelfmark: SD XVI.O.245
!!!SMS-shelfwork: G
!!!SMS-variant:
!!!SMS-altvar:
!!!NIFC-rismSourceID: 990072050
!!!NIFC-islandoraID:
!!!URL-pdf-islandora:
!!!URL-scan: https://polona.pl/item/oratio-dominica-to-iesth-modlithwa-panska-podlug-ssczerego-textu-na-polska-piosnke,MTE3MjM2Nw/3 @EN{Scan on Polona} @PL{Skany w portalu Polona}
!!!ONB-nifc: UWAGA: proszę zapisywać tylko teksty występujące bezpośrednio pod nutami
!!!AIN: 1 alto 1 bass 1 soprn 1 tenor
!!!key: a
**kern	**kern	**kern	**kern	**text-mod
*part4	*part3	*part2	*part1	*
*staff4	*staff3	*staff2	*staff1	*
*I"[BASS]	*I"[TENOR]	*I"[ALT]	*I"CANTVS.	*
*mI"Basso	*mI"Tenore	*mI"Alto	*mI"Soprano	*
*I'B	*I'T	*I'A	*I'S	*
*Ibass	*Itenor	*Ialto	*Isoprn	*
*ICvox	*ICvox	*ICvox	*ICvox	*
*	*	*	*mclefG2	*
*clefF4	*clefC4	*clefC3	*clefC1	*
*k[]	*k[]	*k[]	*k[]	*
*a:	*a:	*a:	*a:	*
*M4/4	*M4/4	*M4/4	*	*
*met(C)	*met(C)	*met(C)	*met(C)	*
*	*	*	*mmet(c)	*
=1-	=1-	=1-	=1-	=1-
*	*	*	*xywh-#5:605,368,2260,650	*
!	!	!	!LO:SIC:t=przed piewrszym taktem dopisane odręcznie kilka dźwięków:v	!
1ryy	1ryy	1ryy	1g	Oj-
1ryy	1ryy	1ryy	2a\	-cze
.	.	.	2g/	nasz
=2-	=2-	=2-	=2-	=2-
1ryy	1ryy	1ryy	2b\	któ-
.	.	.	2g/	-ryś
1ryy	1ryy	1ryy	2a\	jest
.	.	.	2dd\	w nie-
=3-	=3-	=3-	=3-	=3-
1ryy	1ryy	1ryy	1b	-bie,
1ryy	1ryy	1ryy	1g	My
=4-	=4-	=4-	=4-	=4-
1ryy	1ryy	1ryy	2a\	grzesz-
.	.	.	2g/	-ni
1ryy	1ryy	1ryy	2b\	pro-
.	.	.	2g/	-si-
=5-	=5-	=5-	=5-	=5-
1ryy	1ryy	1ryy	2a\	-my
.	.	.	2dd\	Cie-
1ryy	1ryy	1ryy	1b	-bie,
=6-	=6-	=6-	=6-	=6-
1ryy	1ryy	1ryy	2cc\	Święć
.	.	.	2b\	się
1ryy	1ryy	1ryy	2a\	w nas
*	*	*	*custos:b	*
*	*	*	*xywh-#5:1047,1007,1786,457	*
!	!	!	!LO:LB:g=original	!
.	.	.	2b\	i-
=7-	=7-	=7-	=7-	=7-
1ryy	1ryy	1ryy	2e/	-mię
.	.	.	1a\	Twe
1ryy	1ryy	1ryy	.	.
.	.	.	2a\	świę-
=8-	=8-	=8-	=8-	=8-
!	!	!	!LO:TX:t=P:problem:nuta dopisana	!
1ryy	1ryy	1ryy	1g	-te,
1ryy	1ryy	1ryy	2g/	Przyj-
.	.	.	2a\	-dzi
=9-	=9-	=9-	=9-	=9-
1ryy	1ryy	1ryy	2g/	k'nam
.	.	.	2e/	kró-
1ryy	1ryy	1ryy	2d/	-les-
.	.	.	2g/	-two
=10-	=10-	=10-	=10-	=10-
1ryy	1ryy	1ryy	1e	Two-
1ryy	1ryy	1ryy	1e	-je,
=11-	=11-	=11-	=11-	=11-
1ryy	1ryy	1ryy	2a\	I
.	.	.	2f/	niech
1ryy	1ryy	1ryy	2g/	się
.	.	.	2a\	Twa
=12-	=12-	=12-	=12-	=12-
1ryy	1ryy	1ryy	2g/	wo-
.	.	.	1e/	-la
1ryy	1ryy	1ryy	.	.
*	*	*	*custos:d	*
*	*	*	*xywh-#5:1051,1448,1778,465	*
!	!	!	!LO:LB:g=original	!
.	.	.	2d/	sta-
=13-	=13-	=13-	=13-	=13-
1ryy	1ryy	1ryy	1e	-nie,
1ryy	1ryy	1ryy	2g/	Tak
.	.	.	2f/	na
=14-	=14-	=14-	=14-	=14-
1ryy	1ryy	1ryy	2f/	zie-
.	.	.	2e/	-mi
1ryy	1ryy	1ryy	2e/	ja-
.	.	.	1a\	-ko
=15-	=15-	=15-	=15-	=15-
1ryy	1ryy	1ryy	.	.
!	!	!	!LO:MO:mod=2g#	!
.	.	.	2g/	w nie-
1ryy	1ryy	1ryy	1a/l	bie.
==	==	==	==	==
*-	*-	*-	*-	*-
!!!system-decoration: [(s1,s2,s3,s4)]
!!!RDF**kern: > = above
!!!RDF**kern: < = below
!!LO:MO:ori
!!!RDF**kern: l = terminal long
!!LO:MO:end
!!!filter-modern: sic -sq | shed -e "s/-//B" | shed -e "s/^custos:/Xcustos:/I" | shed -e "s/TX(.*):t=P:/tx$1:t=P:/LG" | autostem -r | modori -m
!!!ENC-modern: Leszek Kubiak
!!!END-modern: 2022-07-25
!!!ENC: Katarzyna Serwa
!!!END: 2022-05-06
!!!ENC: Mateusz Solarz
!!!END: 2022-04-25
!!!IIIF: https://polona.pl/iiif/item/MTE3MjM2Nw/manifest.json
!!!ENC-iiif: Emilia Ziętek
!!!END-iiif: 2022-09-02
!!!YEC: Copyright 2022 Narodowy Instytut Fryderyka Chopina (https://polishscores.org)
!!!YEM: Licence CC BY 4.0 (https://creativecommons.org/licenses/by/4.0)
